deepin/devices/camera-video-symbolic.svg

<?xml version="1.0" encoding="UTF-8" standalone="no"?>
<!-- Created with Inkscape (http://www.inkscape.org/) -->

<svg
   xmlns:dc="http://purl.org/dc/elements/1.1/"
   xmlns:cc="http://creativecommons.org/ns#"
   xmlns:rdf="http://www.w3.org/1999/02/22-rdf-syntax-ns#"
   xmlns:svg="http://www.w3.org/2000/svg"
   xmlns="http://www.w3.org/2000/svg"
   xmlns:inkscape="http://www.inkscape.org/namespaces/inkscape"
   version="1.1"
   width="100%"
   height="100%"
   viewBox="0 0 16 16"
   id="图层_1"
   xml:space="preserve"><metadata
     id="metadata15"><rdf:RDF><cc:Work
         rdf:about=""><dc:format>image/svg+xml</dc:format><dc:type
           rdf:resource="http://purl.org/dc/dcmitype/StillImage" /></cc:Work></rdf:RDF></metadata><defs
     id="defs13" /><g
     id="g3"><path
       d="m 8.005,11.985 c 3.027,0 5.491,-2.467 5.491,-5.498 0,-3.031 -2.464,-5.498 -5.491,-5.498 -3.027,0 -5.491,2.467 -5.491,5.498 0,3.031 2.464,5.498 5.491,5.498 z m 0,-9.896 c 2.422,0 4.392,1.973 4.392,4.398 0,2.425 -1.97,4.398 -4.392,4.398 -2.422,0 -4.391,-1.972 -4.391,-4.398 0,-2.426 1.97,-4.398 4.391,-4.398 z"
       inkscape:connector-curvature="0"
       id="path5"
       style="fill:#9fa0a0" /><path
       d="m 13.487,14.297 c -0.389,-0.874 -0.982,-1.781 -1.74,-2.39 -1.084,0.689 -2.365,1.094 -3.742,1.094 -1.382,0 -2.669,-0.408 -3.756,-1.103 C 3.38,12.562 2.885,13.419 2.493,14.296 2.346,14.628 2.304,15 2.952,15 c 1.069,0 3.054,-1 5.054,-1 2,0 4.016,1 5.023,1 0.363,0 0.606,-0.371 0.458,-0.703 z"
       inkscape:connector-curvature="0"
       id="path7"
       style="fill:#9fa0a0" /><path
       d="m 8.005,9.487 c 1.657,0 3,-1.343 3,-3 0,-1.657 -1.343,-3 -3,-3 -0.532,0 -1.027,0.148 -1.46,0.391 0.002,0 0.004,-0.001 0.007,-0.001 0.656,0 1.188,0.532 1.188,1.188 0,0.656 -0.532,1.188 -1.188,1.188 C 5.905,6.253 5.383,5.734 5.369,5.09 5.145,5.508 5.005,5.979 5.005,6.487 c 0,1.657 1.344,3 3,3 z"
       inkscape:connector-curvature="0"
       id="path9"
       style="fill:#9fa0a0" /></g></svg>

<?xml version="1.0" encoding="iso-8859-1"?>
<!-- Generator: Adobe Illustrator 18.0.0, SVG Export Plug-In . SVG Version: 6.00 Build 0)  -->
<!DOCTYPE svg PUBLIC "-//W3C//DTD SVG 1.1//EN" "http://www.w3.org/Graphics/SVG/1.1/DTD/svg11.dtd">
<svg version="1.1" id="&#x56FE;&#x5C42;_1" xmlns="http://www.w3.org/2000/svg" xmlns:xlink="http://www.w3.org/1999/xlink" x="0px"
	 y="0px" viewBox="0 0 16 16" style="enable-background:new 0 0 16 16;" xml:space="preserve">
<g>
	<path style="fill:#9FA0A0;" d="M8.005,11.985c3.027,0,5.491-2.467,5.491-5.498s-2.464-5.498-5.491-5.498S2.514,3.456,2.514,6.487
		S4.978,11.985,8.005,11.985z M8.005,2.089c2.422,0,4.392,1.973,4.392,4.398s-1.97,4.398-4.392,4.398S3.614,8.913,3.614,6.487
		S5.584,2.089,8.005,2.089z"/>
	<path style="fill:#9FA0A0;" d="M13.487,14.297c-0.389-0.874-0.982-1.781-1.74-2.39c-1.084,0.689-2.365,1.094-3.742,1.094
		c-1.382,0-2.669-0.408-3.756-1.103c-0.869,0.664-1.364,1.521-1.756,2.398C2.346,14.628,2.304,15,2.952,15c1.069,0,3.054-1,5.054-1
		s4.016,1,5.023,1C13.392,15,13.635,14.629,13.487,14.297z"/>
	<path style="fill:#9FA0A0;" d="M8.005,9.487c1.657,0,3-1.343,3-3c0-1.657-1.343-3-3-3c-0.532,0-1.027,0.148-1.46,0.391
		c0.002,0,0.004-0.001,0.007-0.001c0.656,0,1.188,0.532,1.188,1.188c0,0.656-0.532,1.188-1.188,1.188
		c-0.647,0-1.169-0.519-1.183-1.163C5.145,5.508,5.005,5.979,5.005,6.487C5.005,8.144,6.349,9.487,8.005,9.487z"/>
</g>
</svg>
